src/Static/Positions/ks-position-60.svg

<?xml version="1.0" encoding="UTF-8"?>
<svg width="251px" height="105px" viewBox="0 0 251 105" version="1.1" xmlns="http://www.w3.org/2000/svg" xmlns:xlink="http://www.w3.org/1999/xlink">
    <title>sex-etsy-60</title>
    <defs>
        <ellipse id="path-1" cx="29.7636674" cy="69.0598205" rx="20.6140424" ry="20.6159909"></ellipse>
        <filter x="-20.6%" y="-15.8%" width="141.2%" height="141.2%" filterUnits="objectBoundingBox" id="filter-2">
            <feMorphology radius="1.5" operator="dilate" in="SourceAlpha" result="shadowSpreadOuter1"></feMorphology>
            <feOffset dx="0" dy="2" in="shadowSpreadOuter1" result="shadowOffsetOuter1"></feOffset>
            <feGaussianBlur stdDeviation="2" in="shadowOffsetOuter1" result="shadowBlurOuter1"></feGaussianBlur>
            <feComposite in="shadowBlurOuter1" in2="SourceAlpha" operator="out" result="shadowBlurOuter1"></feComposite>
            <feColorMatrix values="0 0 0 0 0   0 0 0 0 0   0 0 0 0 0  0 0 0 0.5 0" type="matrix" in="shadowBlurOuter1"></feColorMatrix>
        </filter>
        <path d="M60.910814,55.226984 C60.8709913,55.2300514 60.8350582,55.2314046 60.7950503,55.234472 C57.5256975,55.4870774 54.6895789,55.3770136 52.2039003,55 C50.9907891,62.4613333 55.0892879,72.372759 67.228735,77.177495 C69.9439036,78.2341075 72.5108947,79.1639662 75,80 L61.9335171,67.0380929 C58.6728697,63.8041117 58.3452121,58.8199356 60.910814,55.226984 Z" id="path-3"></path>
        <filter x="-37.0%" y="-26.9%" width="191.0%" height="176.1%" filterUnits="objectBoundingBox" id="filter-4">
            <feMorphology radius="1.5" operator="dilate" in="SourceAlpha" result="shadowSpreadOuter1"></feMorphology>
            <feOffset dx="0" dy="2" in="shadowSpreadOuter1" result="shadowOffsetOuter1"></feOffset>
            <feGaussianBlur stdDeviation="2" in="shadowOffsetOuter1" result="shadowBlurOuter1"></feGaussianBlur>
            <feComposite in="shadowBlurOuter1" in2="SourceAlpha" operator="out" result="shadowBlurOuter1"></feComposite>
            <feColorMatrix values="0 0 0 0 0   0 0 0 0 0   0 0 0 0 0  0 0 0 0.5 0" type="matrix" in="shadowBlurOuter1"></feColorMatrix>
        </filter>
        <path d="M203.747231,61.2452062 C202.934415,64.1448921 201.040409,66.5540255 198.414246,68.0290744 C196.730594,68.9757161 194.824031,69.476076 192.900512,69.476076 C188.826897,69.476076 185.057676,67.2718894 183.064314,63.722808 L174.791513,49 L142.573805,51.8895119 L141.45192,53.1328499 C143.939315,54.6239389 145.543683,57.4067611 145.373017,60.4977369 C145.136725,64.7713731 141.601046,68.1186241 137.324319,68.1186241 C137.174001,68.1186241 137.023591,68.1150494 136.872357,68.1065252 L99.1308325,66.022777 C96.9987015,65.9050884 94.9632688,64.9217836 93.5445978,63.3258381 L82,50.3274798 C84.2770412,54.543555 83.9185697,58.2920837 83.5296679,60.0692367 C83.3961233,60.6795859 83.2017183,61.3102832 82.9500274,61.9065171 L98.142309,77.3772527 L132.828989,77.3772527 C133.125317,76.8294141 133.393048,76.2699349 133.627232,75.6985402 L175.556851,71.9380043 L236.527807,82.8201674 C237.208912,82.9414307 237.885617,83 238.554257,83 C243.999981,83 248.82986,79.102344 249.81985,73.5541145 C250.931561,67.3246843 246.782787,61.3736187 240.553852,60.2619014 L203.176665,53.5907722 C204.259962,55.9947728 204.468299,58.6753966 203.747231,61.2452062 Z" id="path-5"></path>
        <filter x="-8.6%" y="-42.2%" width="113.7%" height="173.0%" filterUnits="objectBoundingBox" id="filter-6">
            <feMorphology radius="1.5" operator="dilate" in="SourceAlpha" result="shadowSpreadOuter1"></feMorphology>
            <feOffset dx="0" dy="2" in="shadowSpreadOuter1" result="shadowOffsetOuter1"></feOffset>
            <feGaussianBlur stdDeviation="2" in="shadowOffsetOuter1" result="shadowBlurOuter1"></feGaussianBlur>
            <feComposite in="shadowBlurOuter1" in2="SourceAlpha" operator="out" result="shadowBlurOuter1"></feComposite>
            <feColorMatrix values="0 0 0 0 0   0 0 0 0 0   0 0 0 0 0  0 0 0 0.5 0" type="matrix" in="shadowBlurOuter1"></feColorMatrix>
        </filter>
        <path d="M97.2933975,79.4872024 L81.9327124,63.933565 C81.2872257,64.6538533 80.4815533,65.0955866 79.5177932,64.9973531 C78.4719333,64.8912283 77.2430821,64.0481254 77.2200942,62.0228645 C77.2025796,60.4847801 76.7329689,59.3489723 75.7415685,58.4485439 C74.3632045,57.1962708 71.3042582,55.8483948 64.5307533,56.0138407 C64.414354,56.1140697 64.2958567,56.2106705 64.1843834,56.319335 C61.3087933,59.1272893 61.2669224,63.7218596 64.0908809,66.5811528 L89.024582,91.8279784 C90.3964692,93.2169439 92.2734524,94 94.231532,94 L138.702242,94 C142.732429,94 146,90.7508567 146,86.7436012 C146,82.7362549 142.732429,79.4872024 138.702242,79.4872024 L97.2933975,79.4872024 L97.2933975,79.4872024 Z" id="path-7"></path>
        <filter x="-10.1%" y="-16.5%" width="120.2%" height="144.1%" filterUnits="objectBoundingBox" id="filter-8">
            <feMorphology radius="1.5" operator="dilate" in="SourceAlpha" result="shadowSpreadOuter1"></feMorphology>
            <feOffset dx="0" dy="2" in="shadowSpreadOuter1" result="shadowOffsetOuter1"></feOffset>
            <feGaussianBlur stdDeviation="2" in="shadowOffsetOuter1" result="shadowBlurOuter1"></feGaussianBlur>
            <feComposite in="shadowBlurOuter1" in2="SourceAlpha" operator="out" result="shadowBlurOuter1"></feComposite>
            <feColorMatrix values="0 0 0 0 0   0 0 0 0 0   0 0 0 0 0  0 0 0 0.5 0" type="matrix" in="shadowBlurOuter1"></feColorMatrix>
        </filter>
        <path d="M70.4112777,37.5013059 C67.4700797,34.1740979 67.7714391,29.0631896 71.0834707,26.1076891 C72.5553934,24.7941945 74.4490001,24.0705893 76.4157328,24.0705893 C78.7105739,24.0705893 80.9001536,25.0588744 82.4247526,26.7820451 L100.143606,46.8237979 C103.163772,47.4938434 106.561985,48.5494448 110.443596,50.1516478 L136.959111,51.6221528 C137.520565,51.6533348 138.065039,51.7431205 138.58815,51.883256 L162.919746,24.7929105 L183.910096,62.3194028 C185.585329,65.3147979 188.684282,67 191.876902,67 C193.391641,67 194.92683,66.6206805 196.340781,65.8222386 C200.737013,63.3413461 202.298038,57.7499602 199.82764,53.3345933 L172.612543,4.67898059 C171.172756,2.1045421 168.587237,0.384031038 165.665667,0.0567120618 C162.736155,-0.271065472 159.843981,0.835435913 157.875423,3.02743671 L137.183328,26.0656851 C129.476251,26.3890605 114.587127,27.0803831 93.9991066,19.4872065 C96.273863,10.0631897 88.6721394,7.6776773 83.0516641,8.75382212 C82.8161272,8.16301549 82.2430789,7.7444434 81.570612,7.7444434 C80.6882618,7.7444434 79.9729783,8.46300439 79.9729783,9.34939775 C79.9729783,9.50649985 80.0023748,9.65525619 80.0442785,9.79878497 C78.676065,10.8179768 76.3827759,14.8381582 74.2615749,18.9802244 C71.9908353,20.9616552 68.717786,22.9168564 62.4525057,23.1989615 C59.1360008,28.5296111 59.0112028,35.1102908 63.1375711,40.1514065 C67.6481931,40.3200643 72.1615539,41.0022157 75.7120437,43.4969568 L70.4112777,37.5013059 Z" id="path-9"></path>
        <filter x="-6.0%" y="-9.7%" width="112.1%" height="125.4%" filterUnits="objectBoundingBox" id="filter-10">
            <feMorphology radius="1.5" operator="dilate" in="SourceAlpha" result="shadowSpreadOuter1"></feMorphology>
            <feOffset dx="0" dy="2" in="shadowSpreadOuter1" result="shadowOffsetOuter1"></feOffset>
            <feGaussianBlur stdDeviation="2" in="shadowOffsetOuter1" result="shadowBlurOuter1"></feGaussianBlur>
            <feComposite in="shadowBlurOuter1" in2="SourceAlpha" operator="out" result="shadowBlurOuter1"></feComposite>
            <feColorMatrix values="0 0 0 0 0   0 0 0 0 0   0 0 0 0 0  0 0 0 0.5 0" type="matrix" in="shadowBlurOuter1"></feColorMatrix>
        </filter>
        <path d="M81.376223,27.9796477 C79.1962992,25.5459945 75.4455736,25.326014 72.9945637,27.4871162 C70.5434624,29.6477652 70.3204191,33.3715719 72.4976941,35.8044094 L95.0124603,60.9602263 C96.0641066,62.1348152 97.5438462,62.8437923 99.1243298,62.9305337 L136.735527,64.9911174 C136.846957,64.9973715 136.957566,65 137.068174,65 C140.197173,65 142.815968,62.5716038 142.990786,59.4333241 C143.171814,56.1843744 140.663628,53.4054778 137.390226,53.2258316 L102.248032,51.3005717 L81.376223,27.9796477 Z" id="path-11"></path>
        <filter x="-11.8%" y="-16.7%" width="123.6%" height="143.6%" filterUnits="objectBoundingBox" id="filter-12">
            <feMorphology radius="1.5" operator="dilate" in="SourceAlpha" result="shadowSpreadOuter1"></feMorphology>
            <feOffset dx="0" dy="2" in="shadowSpreadOuter1" result="shadowOffsetOuter1"></feOffset>
            <feGaussianBlur stdDeviation="2" in="shadowOffsetOuter1" result="shadowBlurOuter1"></feGaussianBlur>
            <feComposite in="shadowBlurOuter1" in2="SourceAlpha" operator="out" result="shadowBlurOuter1"></feComposite>
            <feColorMatrix values="0 0 0 0 0   0 0 0 0 0   0 0 0 0 0  0 0 0 0.5 0" type="matrix" in="shadowBlurOuter1"></feColorMatrix>
        </filter>
        <path d="M42,47.087923 C45.2308493,51.0981693 50.9261137,54.0365015 61.2566036,53.2365052 C76.6782685,52.0423181 79.422083,56.9929316 79.4692184,61.0827724 C79.5163537,65.1726132 86.9055403,54.7787829 76.2111578,45.8372815 C69.9294222,40.5852174 58.6584384,42.8355618 51.3230287,42 C48.7326118,44.3803606 45.5486211,46.1558394 42,47.087923 Z" id="path-13"></path>
        <filter x="-23.8%" y="-32.9%" width="145.1%" height="185.4%" filterUnits="objectBoundingBox" id="filter-14">
            <feMorphology radius="1.5" operator="dilate" in="SourceAlpha" result="shadowSpreadOuter1"></feMorphology>
            <feOffset dx="0" dy="2" in="shadowSpreadOuter1" result="shadowOffsetOuter1"></feOffset>
            <feGaussianBlur stdDeviation="2" in="shadowOffsetOuter1" result="shadowBlurOuter1"></feGaussianBlur>
            <feComposite in="shadowBlurOuter1" in2="SourceAlpha" operator="out" result="shadowBlurOuter1"></feComposite>
            <feColorMatrix values="0 0 0 0 0   0 0 0 0 0   0 0 0 0 0  0 0 0 0.5 0" type="matrix" in="shadowBlurOuter1"></feColorMatrix>
        </filter>
        <ellipse id="path-15" cx="36.0678655" cy="26.1018941" rx="19.7074834" ry="19.6913969"></ellipse>
        <filter x="-21.6%" y="-16.5%" width="143.1%" height="143.2%" filterUnits="objectBoundingBox" id="filter-16">
            <feMorphology radius="1.5" operator="dilate" in="SourceAlpha" result="shadowSpreadOuter1"></feMorphology>
            <feOffset dx="0" dy="2" in="shadowSpreadOuter1" result="shadowOffsetOuter1"></feOffset>
            <feGaussianBlur stdDeviation="2" in="shadowOffsetOuter1" result="shadowBlurOuter1"></feGaussianBlur>
            <feComposite in="shadowBlurOuter1" in2="SourceAlpha" operator="out" result="shadowBlurOuter1"></feComposite>
            <feColorMatrix values="0 0 0 0 0   0 0 0 0 0   0 0 0 0 0  0 0 0 0.5 0" type="matrix" in="shadowBlurOuter1"></feColorMatrix>
        </filter>
    </defs>
    <g id="Page-2" stroke="none" stroke-width="1" fill="none" fill-rule="evenodd">
        <g id="sex-etsy-60" transform="translate(-5.000000, 3.000000)" fill-rule="nonzero">
            <g id="Oval" transform="translate(29.763667, 69.059821) rotate(-42.158838) translate(-29.763667, -69.059821) ">
                <use fill="black" fill-opacity="1" filter="url(#filter-2)" xlink:href="#path-1"></use>
                <use stroke="#1A1A1D" stroke-width="3" fill="#4E4E50" xlink:href="#path-1"></use>
            </g>
            <g id="Path">
                <use fill="black" fill-opacity="1" filter="url(#filter-4)" xlink:href="#path-3"></use>
                <use stroke="#1A1A1D" stroke-width="3" fill="#4E4E50" xlink:href="#path-3"></use>
            </g>
            <g id="Path">
                <use fill="black" fill-opacity="1" filter="url(#filter-6)" xlink:href="#path-5"></use>
                <use stroke="#1A1A1D" stroke-width="3" fill="#4E4E50" xlink:href="#path-5"></use>
            </g>
            <g id="Path">
                <use fill="black" fill-opacity="1" filter="url(#filter-8)" xlink:href="#path-7"></use>
                <use stroke="#1A1A1D" stroke-width="3" fill="#4E4E50" xlink:href="#path-7"></use>
            </g>
            <g id="Path">
                <use fill="black" fill-opacity="1" filter="url(#filter-10)" xlink:href="#path-9"></use>
                <use stroke="#1A1A1D" stroke-width="3" fill="#6F2232" xlink:href="#path-9"></use>
            </g>
            <g id="Path">
                <use fill="black" fill-opacity="1" filter="url(#filter-12)" xlink:href="#path-11"></use>
                <use stroke="#1A1A1D" stroke-width="3" fill="#6F2232" xlink:href="#path-11"></use>
            </g>
            <g id="Path">
                <use fill="black" fill-opacity="1" filter="url(#filter-14)" xlink:href="#path-13"></use>
                <use stroke="#1A1A1D" stroke-width="3" fill="#6F2232" xlink:href="#path-13"></use>
            </g>
            <g id="Oval" transform="translate(36.067865, 26.101894) rotate(-72.393056) translate(-36.067865, -26.101894) ">
                <use fill="black" fill-opacity="1" filter="url(#filter-16)" xlink:href="#path-15"></use>
                <use stroke="#1A1A1D" stroke-width="3" fill="#6F2232" xlink:href="#path-15"></use>
            </g>
        </g>
    </g>
</svg>

<svg xmlns="http://www.w3.org/2000/svg" xmlns:xlink="http://www.w3.org/1999/xlink" width="251" height="105"><defs><filter id="o" width="143.1%" height="143.2%" x="-21.6%" y="-16.5%" filterUnits="objectBoundingBox"><feMorphology in="SourceAlpha" operator="dilate" radius="1.5" result="shadowSpreadOuter1"/><feOffset dy="2" in="shadowSpreadOuter1" result="shadowOffsetOuter1"/><feGaussianBlur in="shadowOffsetOuter1" result="shadowBlurOuter1" stdDeviation="2"/><feComposite in="shadowBlurOuter1" in2="SourceAlpha" operator="out" result="shadowBlurOuter1"/><feColorMatrix in="shadowBlurOuter1" values="0 0 0 0 0 0 0 0 0 0 0 0 0 0 0 0 0 0 0.5 0"/></filter><filter id="c" width="191%" height="176.1%" x="-37%" y="-26.9%" filterUnits="objectBoundingBox"><feMorphology in="SourceAlpha" operator="dilate" radius="1.5" result="shadowSpreadOuter1"/><feOffset dy="2" in="shadowSpreadOuter1" result="shadowOffsetOuter1"/><feGaussianBlur in="shadowOffsetOuter1" result="shadowBlurOuter1" stdDeviation="2"/><feComposite in="shadowBlurOuter1" in2="SourceAlpha" operator="out" result="shadowBlurOuter1"/><feColorMatrix in="shadowBlurOuter1" values="0 0 0 0 0 0 0 0 0 0 0 0 0 0 0 0 0 0 0.5 0"/></filter><filter id="e" width="113.7%" height="173%" x="-8.6%" y="-42.2%" filterUnits="objectBoundingBox"><feMorphology in="SourceAlpha" operator="dilate" radius="1.5" result="shadowSpreadOuter1"/><feOffset dy="2" in="shadowSpreadOuter1" result="shadowOffsetOuter1"/><feGaussianBlur in="shadowOffsetOuter1" result="shadowBlurOuter1" stdDeviation="2"/><feComposite in="shadowBlurOuter1" in2="SourceAlpha" operator="out" result="shadowBlurOuter1"/><feColorMatrix in="shadowBlurOuter1" values="0 0 0 0 0 0 0 0 0 0 0 0 0 0 0 0 0 0 0.5 0"/></filter><filter id="g" width="120.2%" height="144.1%" x="-10.1%" y="-16.5%" filterUnits="objectBoundingBox"><feMorphology in="SourceAlpha" operator="dilate" radius="1.5" result="shadowSpreadOuter1"/><feOffset dy="2" in="shadowSpreadOuter1" result="shadowOffsetOuter1"/><feGaussianBlur in="shadowOffsetOuter1" result="shadowBlurOuter1" stdDeviation="2"/><feComposite in="shadowBlurOuter1" in2="SourceAlpha" operator="out" result="shadowBlurOuter1"/><feColorMatrix in="shadowBlurOuter1" values="0 0 0 0 0 0 0 0 0 0 0 0 0 0 0 0 0 0 0.5 0"/></filter><filter id="a" width="141.2%" height="141.2%" x="-20.6%" y="-15.8%" filterUnits="objectBoundingBox"><feMorphology in="SourceAlpha" operator="dilate" radius="1.5" result="shadowSpreadOuter1"/><feOffset dy="2" in="shadowSpreadOuter1" result="shadowOffsetOuter1"/><feGaussianBlur in="shadowOffsetOuter1" result="shadowBlurOuter1" stdDeviation="2"/><feComposite in="shadowBlurOuter1" in2="SourceAlpha" operator="out" result="shadowBlurOuter1"/><feColorMatrix in="shadowBlurOuter1" values="0 0 0 0 0 0 0 0 0 0 0 0 0 0 0 0 0 0 0.5 0"/></filter><filter id="i" width="112.1%" height="125.4%" x="-6%" y="-9.7%" filterUnits="objectBoundingBox"><feMorphology in="SourceAlpha" operator="dilate" radius="1.5" result="shadowSpreadOuter1"/><feOffset dy="2" in="shadowSpreadOuter1" result="shadowOffsetOuter1"/><feGaussianBlur in="shadowOffsetOuter1" result="shadowBlurOuter1" stdDeviation="2"/><feComposite in="shadowBlurOuter1" in2="SourceAlpha" operator="out" result="shadowBlurOuter1"/><feColorMatrix in="shadowBlurOuter1" values="0 0 0 0 0 0 0 0 0 0 0 0 0 0 0 0 0 0 0.5 0"/></filter><filter id="k" width="123.6%" height="143.6%" x="-11.8%" y="-16.7%" filterUnits="objectBoundingBox"><feMorphology in="SourceAlpha" operator="dilate" radius="1.5" result="shadowSpreadOuter1"/><feOffset dy="2" in="shadowSpreadOuter1" result="shadowOffsetOuter1"/><feGaussianBlur in="shadowOffsetOuter1" result="shadowBlurOuter1" stdDeviation="2"/><feComposite in="shadowBlurOuter1" in2="SourceAlpha" operator="out" result="shadowBlurOuter1"/><feColorMatrix in="shadowBlurOuter1" values="0 0 0 0 0 0 0 0 0 0 0 0 0 0 0 0 0 0 0.5 0"/></filter><filter id="m" width="145.1%" height="185.4%" x="-23.8%" y="-32.9%" filterUnits="objectBoundingBox"><feMorphology in="SourceAlpha" operator="dilate" radius="1.5" result="shadowSpreadOuter1"/><feOffset dy="2" in="shadowSpreadOuter1" result="shadowOffsetOuter1"/><feGaussianBlur in="shadowOffsetOuter1" result="shadowBlurOuter1" stdDeviation="2"/><feComposite in="shadowBlurOuter1" in2="SourceAlpha" operator="out" result="shadowBlurOuter1"/><feColorMatrix in="shadowBlurOuter1" values="0 0 0 0 0 0 0 0 0 0 0 0 0 0 0 0 0 0 0.5 0"/></filter><path id="f" d="M203.75 61.25a11.28 11.28 0 01-20.68 2.48L174.78 49l-32.22 2.89-1.12 1.24a8.07 8.07 0 01-4.58 14.98l-37.74-2.09a8.12 8.12 0 01-5.59-2.7L82 50.33a14.17 14.17 0 011.53 9.75 10.6 10.6 0 01-.58 1.84l15.2 15.47h34.68c.3-.55.56-1.11.8-1.68l41.93-3.76 60.97 10.88a11.46 11.46 0 004.03-22.56l-37.38-6.67c1.08 2.4 1.29 5.09.57 7.66z"/><path id="d" d="M60.91 55.23c-.04 0-.07 0-.11 0-3.27.26-6.11.15-8.6-.23-1.2 7.46 2.89 17.37 15.03 22.18C69.94 78.23 72.5 79.16 75 80L61.93 67.04a9.12 9.12 0 01-1.02-11.81z"/><path id="l" d="M81.38 27.98a5.97 5.97 0 00-8.39-.5 5.86 5.86 0 00-.5 8.32l22.52 25.16a5.96 5.96 0 004.11 1.97L136.74 65a5.93 5.93 0 006.25-5.56 5.9 5.9 0 00-5.6-6.2l-35.14-1.93-20.87-23.32z"/><path id="h" d="M97.3 79.49L81.92 63.93c-.64.72-1.45 1.17-2.41 1.07-1.05-.1-2.28-.95-2.3-2.98a4.57 4.57 0 00-1.48-3.57c-1.38-1.25-4.44-2.6-11.2-2.44-.13.1-.24.2-.36.3a7.23 7.23 0 00-.09 10.27l24.93 25.25A7.32 7.32 0 0094.23 94h44.47c4.03 0 7.3-3.25 7.3-7.26 0-4-3.27-7.25-7.3-7.25H97.3z"/><path id="n" d="M42 47.09c3.23 4 8.93 6.95 19.26 6.15 15.42-1.2 18.16 3.75 18.2 7.84.06 4.1 7.45-6.3-3.25-15.24-6.28-5.25-17.55-3-24.89-3.84A22.05 22.05 0 0142 47.09z"/><path id="j" d="M70.41 37.5a8.1 8.1 0 01.67-11.4 8 8 0 0111.34.68l17.72 20.04c3.02.67 6.42 1.73 10.3 3.33l26.52 1.47a8 8 0 011.63.26l24.33-27.09 20.99 37.53a9.12 9.12 0 0012.43 3.5 9.2 9.2 0 003.49-12.49L172.6 4.68a9.13 9.13 0 00-14.73-1.65l-20.7 23.04c-7.7.32-22.6 1.01-43.18-6.58 2.27-9.43-5.33-11.81-10.95-10.74a1.6 1.6 0 00-3 1.05c-1.37 1.02-3.67 5.04-5.79 9.18-2.27 1.98-5.54 3.94-11.8 4.22-3.32 5.33-3.45 11.91.68 16.95 4.5.17 9.02.85 12.57 3.35l-5.3-6z"/><ellipse id="p" cx="36.068" cy="26.102" rx="19.707" ry="19.691"/><ellipse id="b" cx="29.764" cy="69.06" rx="20.614" ry="20.616"/></defs><g fill="none" fill-rule="nonzero"><g transform="rotate(-42.159 31.155 77.046)"><use fill="#000" filter="url(#a)" xlink:href="#b"/><use fill="#4E4E50" stroke="#1A1A1D" stroke-width="3" xlink:href="#b"/></g><g transform="translate(-5 3)"><use fill="#000" filter="url(#c)" xlink:href="#d"/><use fill="#4E4E50" stroke="#1A1A1D" stroke-width="3" xlink:href="#d"/></g><g transform="translate(-5 3)"><use fill="#000" filter="url(#e)" xlink:href="#f"/><use fill="#4E4E50" stroke="#1A1A1D" stroke-width="3" xlink:href="#f"/></g><g transform="translate(-5 3)"><use fill="#000" filter="url(#g)" xlink:href="#h"/><use fill="#4E4E50" stroke="#1A1A1D" stroke-width="3" xlink:href="#h"/></g><g transform="translate(-5 3)"><use fill="#000" filter="url(#i)" xlink:href="#j"/><use fill="#6F2232" stroke="#1A1A1D" stroke-width="3" xlink:href="#j"/></g><g transform="translate(-5 3)"><use fill="#000" filter="url(#k)" xlink:href="#l"/><use fill="#6F2232" stroke="#1A1A1D" stroke-width="3" xlink:href="#l"/></g><g transform="translate(-5 3)"><use fill="#000" filter="url(#m)" xlink:href="#n"/><use fill="#6F2232" stroke="#1A1A1D" stroke-width="3" xlink:href="#n"/></g><g transform="rotate(-72.393 35.618 31.018)"><use fill="#000" filter="url(#o)" xlink:href="#p"/><use fill="#6F2232" stroke="#1A1A1D" stroke-width="3" xlink:href="#p"/></g></g></svg>
